X: 4
T: The Tenpenny Bit
R: jig
M: 6/8
L: 1/8
K: Ador
|:e|eAA eAA|BAB GBd|eAA eAA|def gfg|eAA eAA|BAB GBd|edB gBB|ABA A2:|B|A2a aga|bge dBG|A2a aga|bge g2d|e2a aga|bge dBd|edB gBB|ABA A2:|


Tune 109	Setting 12687

